images/js.svg

<svg width="80" height="80" viewBox="0 0 80 80" fill="none" xmlns="http://www.w3.org/2000/svg">
<path d="M75.9372 4.06262H4.06287V75.9373H75.9372V4.06262Z" fill="#F0DB4F"/>
<path d="M43.1767 60.1185C43.1767 67.1133 39.0695 70.306 33.0852 70.306C27.6788 70.306 24.5503 67.5146 22.9458 64.1296L28.4486 60.8085C29.5075 62.6855 30.4702 64.2736 32.7964 64.2736C35.0103 64.2736 36.4225 63.4074 36.4225 60.0224V37.064H43.1767V60.1185Z" fill="#323330"/>
<path d="M59.1561 70.306C52.8831 70.306 48.8242 67.3217 46.8508 63.4074L52.3537 60.2305C53.7976 62.5891 55.6906 64.3377 59.0117 64.3377C61.8033 64.3377 63.5998 62.942 63.5998 61.001C63.5998 58.6905 61.7711 57.8727 58.6748 56.5088L56.9903 55.7869C52.1131 53.7172 48.8883 51.102 48.8883 45.5994C48.8883 40.5295 52.7547 36.6791 58.7708 36.6791C63.0705 36.6791 66.1508 38.1711 68.3648 42.0858L63.1025 45.4549C61.9475 43.3852 60.6961 42.5672 58.7548 42.5672C56.7814 42.5672 55.53 43.8188 55.53 45.4549C55.53 47.4764 56.7814 48.2949 59.6853 49.5619L61.3697 50.2839C67.1133 52.7386 70.338 55.2577 70.338 60.9049C70.3383 66.9689 65.5572 70.306 59.1561 70.306Z" fill="#323330"/>
</svg>

<svg width="80" height="80" viewBox="0 0 80 80" fill="none" xmlns="http://www.w3.org/2000/svg"><path d="M75.937 4.063H4.063v71.874h71.874V4.063z" fill="#F0DB4F"/><path d="M43.177 60.118c0 6.995-4.108 10.188-10.092 10.188-5.406 0-8.535-2.791-10.14-6.176l5.504-3.321c1.058 1.877 2.021 3.465 4.347 3.465 2.214 0 3.627-.867 3.627-4.252V37.064h6.754v23.054zm15.979 10.188c-6.273 0-10.332-2.984-12.305-6.899l5.503-3.176c1.444 2.358 3.337 4.107 6.658 4.107 2.791 0 4.588-1.396 4.588-3.337 0-2.31-1.829-3.128-4.925-4.492l-1.685-.722c-4.877-2.07-8.102-4.685-8.102-10.188 0-5.07 3.867-8.92 9.883-8.92 4.3 0 7.38 1.492 9.594 5.407l-5.262 3.369c-1.156-2.07-2.407-2.888-4.348-2.888-1.974 0-3.225 1.252-3.225 2.888 0 2.021 1.251 2.84 4.155 4.107l1.685.722c5.743 2.455 8.968 4.974 8.968 10.62 0 6.065-4.78 9.402-11.182 9.402z" fill="#323330"/></svg>
